X:1
T:Amor, in was für schmertzen
T:Giovanni Giacomo Gastoldi
T:Source :  Tricinia ---Johann-Jacobi Gastoldi und anderer  Autorn---Nürnberg---P.Kauffmann---1607. Editor : André Vierendeels (11/03/17).
T:Notes : Original clefs : G2, G2, C4 Text Middle German by Valentin Hauszmann
T:Amor, in was für schmertzen
T:©
T:©
C:Giovanni Giacomo Gastoldi
Z:©
%%score [ 1 2 3 ]
L:1/8
Q:1/4=120
M:4/4
K:C
V:1 treble nm="Soprano 1" snm="S 1"
V:2 treble nm="Soprano 2" snm="S 2"
V:3 treble-8 nm="Tenor" snm="T"
V:1
"^1)" z2 e2 g4- | g2 f2 e2 e2 | d4 d4 | B2 Bc d4 | A2 c4 B2 |[M:2/4] c4 ::[M:4/4] e8 | %7
w: A- mor,|_ in was für|schmer- tzen|bringst du der Men-|schen Her- *|tzen?|Wer|
w: Dasz du|_ so seh: thust|bren- nen,|mag ich dich bil-|lich nen- *|nen|ein|
 d2 c2 B2 A2 | ^G4 G4 | z2 A3 A A2 | A2 B2 c2 e2- | ee e2 ABcA | d4 c2 A2- | AA A2 efgf | %14
w: kan sich dein ent-|hal- ten,|weil du bey|Jun- gen herzschst und|_ bey den Al- * * *|||
w: feur ü- ber al-|le feure,|wel- ches Marck|kein ver- kehrt gantz|_ un ge heu- * * *|||
 e2 dc B2 c2- | c2 B2 !fermata!c4 :| %16
w: |* * ten?|
w: |* * re.|
V:2
"^2)""^1)" z2 c2 e4- | e2 d2 c2 c2 | B4 B4 | d2 de f4- | f2 e2 d4 |[M:2/4] e4 ::[M:4/4] c8 | %7
w: A- mor,|_ in was für|schmer- tzen|bringst du der Men-|* schen Her-|tzen?|Wer|
w: A- mor,|_ durch dei- ne|tha- ten,|sind offt zwei Hertz|* ge- ra-|then,|bisz|
 B2 A2 ^G2 A2 | B4 B4 | z2 ^c3 c c2 | d2 d2 e4 | z2 e3 e e2 | f4 e4 | d4 G2 G2 | g6 fe | %15
w: kan sich dein ent-|hal- ten,|weil du bey|Jun- gen herzschst|und bey den|Al- *|||
w: in den Todt mit|za- gen,|wenn sie dein|Pfeil ohn trost|müs- sen er-|tra- *|||
 d4 !fermata!e4 :| %16
w: * ten?|
w: * gen.|
V:3
"^3)""^1)""^4)" z2 C2 c4- | c2 d2 A2 c2 | G4 G4 | z4 D2 DE | F2 C2 G4 |[M:2/4] C4 ::[M:4/4] c8 | %7
w: A- mor,|_ in was für|schmer- tzen|bringst du der|Men- schen Her-|tzen?|Wer|
w: Was man|_ von Lieb thut|sa- gen,|musz ich mein|Schatz dir kla-|gen.|Ach|
 G2 A2 E2 F2 | E4 E4 | z2 A3 A A2 | d2 G2 c4 | z2 A2 A3 A | DEFD ABcA | defd e3 d | c2 BA G2 A2 | %15
w: kan sich dein ent-|hal- ten,|weil du bey|Jun- gen herzschst|und bey den|Al- * * * * * * *|||
w: wie werd ich mich|stil- len?|Wo du nicht|hilffst, ich stirb|umb dei- nent|wil- * * * * * * *|||
 F2 G2 !fermata!C4 :| %16
w: * * ten?|
w: * * len.|

